img/menu_icon4.svg

<svg width="16" height="16" viewBox="0 0 16 16" fill="none" xmlns="http://www.w3.org/2000/svg">
<path d="M1 0C0.4375 0 0 0.46875 0 1V15.5C0 15.7812 0.21875 16 0.5 16H1.5C1.75 16 2 15.7812 2 15.5V1C2 0.46875 1.53125 0 1 0ZM9.34375 9.5C7.5625 9.03125 5.875 8.59375 3 9.84375V12C8.78125 9.125 9.90625 13.6875 15.4062 11.2812C15.75 11.125 16 10.7812 16 10.4062V9.28125C14.625 9.8125 13.4688 10.0312 12.4688 10.0312C11.3125 10.0312 10.3438 9.75 9.34375 9.5ZM9.34375 6.5C7.5625 6.03125 5.875 5.59375 3 6.84375V8.78125C5.9375 7.59375 7.8125 8.0625 9.625 8.53125C11.4062 9 13.0938 9.4375 16 8.1875V6.25C14.625 6.8125 13.4688 7.03125 12.4688 7.03125C11.3125 7.03125 10.3438 6.75 9.34375 6.5ZM9.65625 2.5625C11.2812 3.0625 12.6875 3.46875 16 1.9375V0.96875C16 0.1875 15.1562 -0.21875 14.4375 0.15625C9.09375 2.875 9.53125 -1.9375 3 1.03125V5.78125C5.9375 4.59375 7.8125 5.0625 9.625 5.53125C11.4062 6 13.0938 6.4375 16 5.1875V3.03125C14.3125 3.78125 13.0625 4.03125 12.0312 4.03125C11.0312 4.03125 10.1875 3.78125 9.375 3.53125C9.25 3.46875 9.125 3.4375 9 3.40625V2.375C9.21875 2.4375 9.4375 2.5 9.65625 2.5625ZM5 4.03125C4.71875 4.03125 4.5 3.78125 4.5 3.53125C4.5 3.25 4.71875 3.03125 5 3.03125C5.25 3.03125 5.5 3.25 5.5 3.53125C5.5 3.78125 5.25 4.03125 5 4.03125ZM5 2.28125C4.71875 2.28125 4.5 2.0625 4.5 1.78125C4.5 1.5 4.71875 1.28125 5 1.28125C5.25 1.28125 5.5 1.5 5.5 1.78125C5.5 2.0625 5.25 2.28125 5 2.28125ZM7 3.78125C6.71875 3.78125 6.5 3.5625 6.5 3.28125C6.5 3 6.71875 2.78125 7 2.78125C7.25 2.78125 7.5 3 7.5 3.28125C7.5 3.53125 7.25 3.78125 7 3.78125ZM7 2.03125C6.71875 2.03125 6.5 1.8125 6.5 1.53125C6.5 1.25 6.71875 1.03125 7 1.03125C7.25 1.03125 7.5 1.25 7.5 1.53125C7.5 1.8125 7.25 2.03125 7 2.03125Z" fill="white"/>
</svg>

<svg width="16" height="16" fill="none" xmlns="http://www.w3.org/2000/svg"><path d="M1 0C.437 0 0 .469 0 1v14.5c0 .281.219.5.5.5h1c.25 0 .5-.219.5-.5V1c0-.531-.469-1-1-1zm8.344 9.5C7.563 9.031 5.875 8.594 3 9.844V12c5.781-2.875 6.906 1.688 12.406-.719.344-.156.594-.5.594-.875V9.281c-1.375.531-2.531.75-3.531.75-1.156 0-2.125-.281-3.125-.531zm0-3C7.563 6.031 5.875 5.594 3 6.844V8.78c2.938-1.187 4.813-.719 6.625-.25 1.781.469 3.469.906 6.375-.344V6.25c-1.375.563-2.531.781-3.531.781-1.156 0-2.125-.281-3.125-.531zm.312-3.938c1.625.5 3.031.907 6.344-.624v-.97c0-.78-.844-1.187-1.563-.812C9.095 2.875 9.532-1.938 3 1.031v4.75c2.938-1.187 4.813-.718 6.625-.25 1.781.469 3.469.907 6.375-.343V3.03c-1.688.75-2.938 1-3.969 1-1 0-1.844-.25-2.656-.5-.125-.062-.25-.094-.375-.125V2.375l.656.188zM5 4.032c-.281 0-.5-.25-.5-.5 0-.282.219-.5.5-.5.25 0 .5.218.5.5 0 .25-.25.5-.5.5zm0-1.75a.494.494 0 01-.5-.5c0-.282.219-.5.5-.5.25 0 .5.218.5.5 0 .28-.25.5-.5.5zm2 1.5a.494.494 0 01-.5-.5c0-.282.219-.5.5-.5.25 0 .5.218.5.5 0 .25-.25.5-.5.5zm0-1.75a.494.494 0 01-.5-.5c0-.282.219-.5.5-.5.25 0 .5.218.5.5 0 .28-.25.5-.5.5z" fill="#fff"/></svg>
